img/whatsapp.svg

<?xml version="1.0" ?><svg height="60px" version="1.1" viewBox="0 0 60 60" width="60px" xmlns="http://www.w3.org/2000/svg" xmlns:sketch="http://www.bohemiancoding.com/sketch/ns" xmlns:xlink="http://www.w3.org/1999/xlink"><title/><defs/><g fill="none" fill-rule="evenodd" id="flat" stroke="none" stroke-width="1"><g id="whatsapp"><path d="M30,60 C46.5685433,60 60,46.5685433 60,30 C60,13.4314567 46.5685433,0 30,0 C13.4314567,0 0,13.4314567 0,30 C0,46.5685433 13.4314567,60 30,60 Z" fill="#57BB63"/><path d="M30.0712615,46.2210462 C27.2108308,46.2210462 24.5235692,45.4899692 22.1856,44.2068923 L13.1538462,47.0769231 L16.0980923,38.3918769 C14.6130462,35.9523692 13.7575385,33.0915692 13.7575385,30.0336 C13.7575385,21.0934154 21.0612923,13.8461538 30.0716308,13.8461538 C39.0808615,13.8461538 46.3846154,21.0934154 46.3846154,30.0336 C46.3846154,38.9737846 39.0812308,46.2210462 30.0712615,46.2210462 Z M30.0712615,16.4241231 C22.5079385,16.4241231 16.3558154,22.5293538 16.3558154,30.0336 C16.3558154,33.0114462 17.3265231,35.7692308 18.9681231,38.0130462 L17.2548923,43.0670769 L22.5252923,41.3918769 C24.6912,42.8137846 27.2854154,43.6430769 30.0712615,43.6430769 C37.6334769,43.6430769 43.7867077,37.5382154 43.7867077,30.0339692 C43.7867077,22.5297231 37.6334769,16.4241231 30.0712615,16.4241231 L30.0712615,16.4241231 Z M38.3088,33.7617231 C38.2083692,33.5966769 37.9417846,33.4969846 37.5426462,33.2987077 C37.1424,33.1004308 35.1758769,32.1400615 34.8099692,32.0082462 C34.4429538,31.8760615 34.176,31.8092308 33.9097846,32.2065231 C33.6435692,32.6038154 32.8770462,33.4969846 32.6433231,33.7617231 C32.4099692,34.0268308 32.1769846,34.0600615 31.7771077,33.8614154 C31.3776,33.6631385 30.0889846,33.2440615 28.5611077,31.8923077 C27.3725538,30.8407385 26.5698462,29.5425231 26.3368615,29.1448615 C26.1035077,28.7479385 26.3121231,28.5334154 26.5122462,28.3358769 C26.6920615,28.1579077 26.9121231,27.8724923 27.1122462,27.6409846 C27.3123692,27.4091077 27.3788308,27.2440615 27.5117538,26.9789538 C27.6454154,26.7142154 27.5785846,26.4827077 27.4785231,26.2836923 C27.3784615,26.0854154 26.5783385,24.1329231 26.2452923,23.3383385 C25.9122462,22.5444923 25.5795692,22.6766769 25.3458462,22.6766769 C25.1124923,22.6766769 24.8459077,22.6434462 24.5793231,22.6434462 C24.3127385,22.6434462 23.8792615,22.7427692 23.5126154,23.1396923 C23.1463385,23.5369846 22.1136,24.4969846 22.1136,26.4491077 C22.1136,28.4016 23.5458462,30.288 23.7463385,30.5523692 C23.9460923,30.8167385 26.5118769,34.9536 30.5767385,36.5424 C34.6430769,38.1308308 34.6430769,37.6009846 35.3763692,37.5348923 C36.1085538,37.4688 37.7412923,36.5752615 38.0754462,35.6488615 C38.4081231,34.7217231 38.4081231,33.9271385 38.3088,33.7617231 L38.3088,33.7617231 Z" fill="#FFFFFF"/></g></g></svg>

<?xml version="1.0" encoding="UTF-8" standalone="no"?>
<svg
   xmlns:dc="http://purl.org/dc/elements/1.1/"
   xmlns:cc="http://creativecommons.org/ns#"
   xmlns:rdf="http://www.w3.org/1999/02/22-rdf-syntax-ns#"
   xmlns:svg="http://www.w3.org/2000/svg"
   xmlns="http://www.w3.org/2000/svg"
   xmlns:sodipodi="http://sodipodi.sourceforge.net/DTD/sodipodi-0.dtd"
   xmlns:inkscape="http://www.inkscape.org/namespaces/inkscape"
   height="48"
   version="1.1"
   viewBox="0 0 48 48"
   width="48"
   id="svg2"
   inkscape:version="0.91 r13725"
   sodipodi:docname="whatsapp.svg">
  <metadata
     id="metadata16">
    <rdf:RDF>
      <cc:Work
         rdf:about="">
        <dc:format>image/svg+xml</dc:format>
        <dc:type
           rdf:resource="http://purl.org/dc/dcmitype/StillImage" />
        <dc:title></dc:title>
      </cc:Work>
    </rdf:RDF>
  </metadata>
  <sodipodi:namedview
     pagecolor="#ffffff"
     bordercolor="#666666"
     borderopacity="1"
     objecttolerance="10"
     gridtolerance="10"
     guidetolerance="10"
     inkscape:pageopacity="0"
     inkscape:pageshadow="2"
     inkscape:window-width="640"
     inkscape:window-height="480"
     id="namedview14"
     showgrid="false"
     inkscape:zoom="3.9333333"
     inkscape:cx="30"
     inkscape:cy="30"
     inkscape:window-x="10"
     inkscape:window-y="34"
     inkscape:window-maximized="0"
     inkscape:current-layer="svg2" />
  <defs
     id="defs6" />
  <g
     id="flat"
     style="fill:none;fill-rule:evenodd;stroke:none;stroke-width:1"
     transform="matrix(0.66525424,0,0,0.66525424,3.8135594,5.0338983)">
    <g
       id="whatsapp">
      <path
         d="M 30,60 C 46.568543,60 60,46.568543 60,30 60,13.431457 46.568543,0 30,0 13.431457,0 0,13.431457 0,30 0,46.568543 13.431457,60 30,60 Z"
         id="path10"
         inkscape:connector-curvature="0"
         style="fill:#57bb63" />
      <path
         d="m 30.071261,46.221046 c -2.86043,0 -5.547692,-0.731077 -7.885661,-2.014154 l -9.031754,2.870031 2.944246,-8.685046 c -1.485046,-2.439508 -2.340553,-5.300308 -2.340553,-8.358277 0,-8.940185 7.303753,-16.187446 16.314092,-16.187446 9.00923,0 16.312984,7.247261 16.312984,16.187446 0,8.940185 -7.303384,16.187446 -16.313354,16.187446 z m 0,-29.796923 c -7.563322,0 -13.715446,6.105231 -13.715446,13.609477 0,2.977846 0.970708,5.735631 2.612308,7.979446 l -1.713231,5.054031 5.2704,-1.6752 c 2.165908,1.421908 4.760123,2.2512 7.545969,2.2512 7.562216,0 13.715447,-6.104862 13.715447,-13.609108 0,-7.504246 -6.153231,-13.609846 -13.715447,-13.609846 l 0,0 z m 8.237539,17.3376 C 38.208369,33.596677 37.941785,33.496985 37.542646,33.298708 37.1424,33.100431 35.175877,32.140062 34.809969,32.008246 34.442954,31.876061 34.176,31.809231 33.909785,32.206523 c -0.266216,0.397292 -1.032739,1.290462 -1.266462,1.5552 -0.233354,0.265108 -0.466338,0.298339 -0.866215,0.09969 -0.399508,-0.198276 -1.688123,-0.617354 -3.216,-1.969107 -1.188554,-1.05157 -1.991262,-2.349785 -2.224247,-2.747447 -0.233353,-0.396923 -0.02474,-0.611446 0.175385,-0.808984 0.179815,-0.177969 0.399877,-0.463385 0.6,-0.694892 0.200123,-0.231877 0.266585,-0.396924 0.399508,-0.662031 0.133661,-0.264739 0.06683,-0.496246 -0.03323,-0.695262 -0.100062,-0.198277 -0.900185,-2.150769 -1.233231,-2.945354 -0.333046,-0.793846 -0.665723,-0.661661 -0.899446,-0.661661 -0.233354,0 -0.499938,-0.03323 -0.766523,-0.03323 -0.266585,0 -0.700062,0.09932 -1.066708,0.496246 -0.366277,0.397293 -1.399015,1.357293 -1.399015,3.309416 0,1.952492 1.432246,3.838892 1.632738,4.103261 0.199754,0.264369 2.765539,4.401231 6.8304,5.990031 4.066339,1.588431 4.066339,1.058585 4.799631,0.992492 0.732185,-0.06609 2.364923,-0.95963 2.699077,-1.88603 0.332677,-0.927139 0.332677,-1.721724 0.233354,-1.887139 l 0,0 z"
         id="path12"
         inkscape:connector-curvature="0"
         style="fill:#ffffff" />
    </g>
  </g>
</svg>
